themes/stellar/source/img/icons/25678f144c438.svg

<?xml version="1.0" encoding="UTF-8"?>
<svg width="32px" height="32px" viewBox="0 0 32 32" version="1.1" xmlns="http://www.w3.org/2000/svg" xmlns:xlink="http://www.w3.org/1999/xlink">
    <title>rss@1x</title>
    <defs>
        <linearGradient x1="27.1974084%" y1="50.0019722%" x2="123.339596%" y2="50.0019722%" id="linearGradient-1">
            <stop stop-color="#FF4C54" offset="0%"></stop>
            <stop stop-color="#BE3F45" offset="100%"></stop>
        </linearGradient>
        <linearGradient x1="82.5188302%" y1="50.0043412%" x2="-32.4765987%" y2="50.0043412%" id="linearGradient-2">
            <stop stop-color="#FF4C54" offset="0%"></stop>
            <stop stop-color="#BE3F45" offset="100%"></stop>
        </linearGradient>
        <linearGradient x1="101.951725%" y1="65.6696711%" x2="-34.3357515%" y2="-73.0853246%" id="linearGradient-3">
            <stop stop-color="#BE3F45" stop-opacity="0" offset="0%"></stop>
            <stop stop-color="#BE3F45" offset="100%"></stop>
        </linearGradient>
        <linearGradient x1="49.9987187%" y1="38.5247903%" x2="49.9987187%" y2="88.3314758%" id="linearGradient-4">
            <stop stop-color="#FFB92D" offset="0%"></stop>
            <stop stop-color="#F59500" offset="100%"></stop>
        </linearGradient>
        <linearGradient x1="49.9978298%" y1="41.0180614%" x2="49.9978298%" y2="86.6821849%" id="linearGradient-5">
            <stop stop-color="#FFB92D" offset="0%"></stop>
            <stop stop-color="#F59500" offset="100%"></stop>
        </linearGradient>
        <linearGradient x1="34.8254067%" y1="59.1046224%" x2="-85.9523255%" y2="-53.8833604%" id="linearGradient-6">
            <stop stop-color="#BE3F45" stop-opacity="0" offset="0%"></stop>
            <stop stop-color="#BE3F45" offset="100%"></stop>
        </linearGradient>
        <linearGradient x1="38.4959127%" y1="50.0020775%" x2="88.3118473%" y2="50.0020775%" id="linearGradient-7">
            <stop stop-color="#FFF465" offset="0%"></stop>
            <stop stop-color="#FFE600" offset="100%"></stop>
        </linearGradient>
        <linearGradient x1="38.5232596%" y1="50.0035716%" x2="88.3108435%" y2="50.0035716%" id="linearGradient-8">
            <stop stop-color="#FFF465" offset="0%"></stop>
            <stop stop-color="#FFE600" offset="100%"></stop>
        </linearGradient>
        <linearGradient x1="55.4991584%" y1="50.8274328%" x2="44.021461%" y2="49.2550821%" id="linearGradient-9">
            <stop stop-color="#C3C3C3" offset="0%"></stop>
            <stop stop-color="#F2F2F2" offset="100%"></stop>
        </linearGradient>
        <linearGradient x1="53.7180811%" y1="50.7035837%" x2="46.7197495%" y2="49.5514889%" id="linearGradient-10">
            <stop stop-color="#C3C3C3" offset="0%"></stop>
            <stop stop-color="#F2F2F2" offset="100%"></stop>
        </linearGradient>
        <linearGradient x1="53.3843569%" y1="50.7483887%" x2="47.0767494%" y2="49.6571198%" id="linearGradient-11">
            <stop stop-color="#C3C3C3" offset="0%"></stop>
            <stop stop-color="#F2F2F2" offset="100%"></stop>
        </linearGradient>
    </defs>
    <g id="rss" stroke="none" stroke-width="1" fill="none" fill-rule="evenodd">
        <g id="1041870" transform="translate(0.000000, 4.000000)" fill-rule="nonzero">
            <path d="M6.0100625,14.5558125 L1.127125,14.5558125 L1.9865625,16.979375 C2.44925,18.284125 2.6856875,19.65825 2.6856875,21.042625 L2.6856875,21.29725 C2.6856875,22.645625 3.77875,23.73875 5.1271875,23.73875 L5.1271875,23.73875 C6.4755625,23.73875 7.5686875,22.6456875 7.5686875,21.29725 L7.5686875,21.042625 C7.5686875,19.65825 7.33225,18.284125 6.8695625,16.979375 L6.0100625,14.5558125 Z" id="Path" fill="url(#linearGradient-1)"></path>
            <path d="M3.5598125,17.6560625 C3.91325,18.65275 4.0938125,19.7025 4.0938125,20.76 L4.0938125,20.9750625 C4.0938125,21.5196875 4.535375,21.96125 5.08,21.96125 L5.08,21.96125 C5.624625,21.96125 6.0661875,21.5196875 6.0661875,20.9750625 L6.0661875,20.76 C6.0661875,19.7025 5.8855625,18.65275 5.5321875,17.6560625 L5.2204375,16.99625 C5.0928125,16.7261875 4.8209375,16.553875 4.5221875,16.553875 L4.2580625,16.553875 C3.6915,16.5539375 3.31775,17.1438125 3.5598125,17.6560625 L3.5598125,17.6560625 Z" id="Path" fill="url(#linearGradient-2)"></path>
            <path d="M6.0100625,14.5558125 L1.127125,14.5558125 L1.19125,14.7365625 L7.568625,21.1139375 L7.568625,21.04275 C7.568625,19.658375 7.3321875,18.28425 6.8695,16.9795 L6.0100625,14.5558125 Z" id="Path" fill="url(#linearGradient-3)"></path>
            <path d="M0,12.8384375 L0,8.0834375 C0,6.9116875 0.949875,5.96175 2.1216875,5.96175 L8.8090625,5.96175 C9.9808125,5.96175 10.93075,6.911625 10.93075,8.0834375 L10.93075,12.8384375 C10.93075,14.0101875 9.980875,14.960125 8.8090625,14.960125 L2.1216875,14.960125 C0.949875,14.960125 0,14.01025 0,12.8384375 Z" id="Path" fill="url(#linearGradient-4)"></path>
            <path d="M20.3614375,20.1868125 C16.2246875,18.164875 11.9855,16.3890625 7.637875,14.8651875 C7.0509375,14.6595 6.658,14.105875 6.658,13.4839375 L6.658,7.4379375 C6.658,6.816 7.0510625,6.262375 7.637875,6.0566875 C11.9855625,4.532875 16.22475,2.7570625 20.3614375,0.7350625 C21.267125,0.292375 22.3393125,0.87125 22.4615,1.8718125 C23.1603125,7.5933125 23.16025,13.32875 22.4615,19.050125 C22.3393125,20.0506875 21.2670625,20.6294375 20.3614375,20.1868125 Z" id="Path" fill="url(#linearGradient-5)"></path>
            <path d="M22.1265,19.818 L8.17475,5.86625 C7.995875,5.9299375 7.817125,5.993875 7.6378125,6.0566875 C7.050875,6.262375 6.6579375,6.816 6.6579375,7.4379375 L6.6579375,13.4839375 C6.6579375,14.105875 7.051,14.6595 7.6378125,14.8651875 C11.9855,16.389 16.2246875,18.1648125 20.361375,20.1868125 C20.9963125,20.497125 21.7125625,20.305 22.1265,19.818 Z" id="Path" fill="url(#linearGradient-6)"></path>
            <path d="M22.4545625,1.0785 C22.3485,0.2500625 21.45925,-0.22925 20.7074375,0.1344375 L20.7074375,0.1344375 C20.227,0.3668125 19.97975,0.8933125 20.07425,1.4185625 C20.0794375,1.4475625 20.0839375,1.4769375 20.0875625,1.5066875 C20.8160625,7.471375 20.8160625,13.4505 20.0875625,19.4150625 C20.0839375,19.4448125 20.0794375,19.4741875 20.07425,19.503125 C19.9796875,20.028375 20.227,20.5549375 20.7074375,20.78725 L20.7074375,20.78725 C21.45925,21.1509375 22.3485625,20.6715625 22.4545625,19.8431875 C23.2544375,13.5940625 23.2545,7.3279375 22.4545625,1.0785 Z" id="Path" fill="url(#linearGradient-7)"></path>
            <path d="M7.01325,15.6998125 L7.01325,15.6998125 C6.2605,15.6998125 5.6503125,15.089625 5.6503125,14.336875 L5.6503125,6.585 C5.6503125,5.83225 6.2605,5.2220625 7.01325,5.2220625 L7.01325,5.2220625 C7.766,5.2220625 8.37618752,5.83225 8.37618752,6.585 L8.37618752,14.336875 C8.3763125,15.089625 7.766,15.6998125 7.01325,15.6998125 Z" id="Path" fill="url(#linearGradient-8)"></path>
            <path d="M24.5618125,13.9295 C24.5035625,13.9295 24.4446875,13.9245625 24.385375,13.9143125 C23.8255,13.8175625 23.450125,13.28525 23.5469375,12.725375 C23.631625,12.23525 23.689625,11.7155625 23.7191875,11.180625 C23.777,10.1359375 23.71775,9.1135625 23.5524375,8.30175 C23.4390625,7.745 23.7984375,7.20175 24.3551875,7.088375 C24.91225,6.9751875 25.4551875,7.334375 25.5685625,7.891125 C25.770875,8.8845 25.84175,10.0611875 25.7735625,11.294125 C25.739625,11.908125 25.672625,12.5075625 25.574375,13.0756875 C25.4878125,13.5763125 25.0530625,13.9295 24.5618125,13.9295 Z" id="Path" fill="url(#linearGradient-9)"></path>
            <path d="M26.9634375,15.842 C26.8415625,15.842 26.71775,15.82025 26.5970625,15.77425 C26.0661875,15.5718125 25.7999375,14.9773125 26.002375,14.4464375 C26.447625,13.278875 26.7253125,11.8950625 26.8055,10.4443125 C26.885625,8.9946875 26.762,7.597625 26.448125,6.4040625 C26.3035625,5.854625 26.6318125,5.2919375 27.1813125,5.1474375 C27.7305625,5.0026875 28.293375,5.331125 28.4379375,5.880625 C28.805875,7.2791875 28.95175,8.896625 28.859875,10.557875 C28.768125,12.2179375 28.4448125,13.8160625 27.924875,15.1795625 C27.7685,15.58975 27.377875,15.842 26.9634375,15.842 Z" id="Path" fill="url(#linearGradient-10)"></path>
            <path d="M29.2918125,17.68775 C29.12325,17.68775 28.9524375,17.64625 28.7945,17.558875 C28.2974375,17.2836875 28.1175,16.6576875 28.3926875,16.160625 C29.276875,14.5633125 29.8048125,12.6231875 29.9194375,10.549875 C30.0339375,8.479125 29.723125,6.51125 29.0206875,4.8590625 C28.798375,4.3361875 29.042,3.732125 29.564875,3.5098125 C30.08775,3.2875625 30.6918125,3.5311875 30.914125,4.054 C31.7391875,5.994375 32.105625,8.2799375 31.97375,10.6634375 C31.842125,13.0445625 31.2261875,15.2899375 30.19275,17.1570625 C30.005,17.49625 29.6538125,17.68775 29.2918125,17.68775 Z" id="Path" fill="url(#linearGradient-11)"></path>
        </g>
    </g>
</svg>

<svg width="32" height="32" viewBox="0 0 32 32" xmlns="http://www.w3.org/2000/svg"><defs><linearGradient x1="27.197%" y1="50.002%" x2="123.34%" y2="50.002%" id="a"><stop stop-color="#FF4C54" offset="0%"/><stop stop-color="#BE3F45" offset="100%"/></linearGradient><linearGradient x1="82.519%" y1="50.004%" x2="-32.477%" y2="50.004%" id="b"><stop stop-color="#FF4C54" offset="0%"/><stop stop-color="#BE3F45" offset="100%"/></linearGradient><linearGradient x1="101.952%" y1="65.67%" x2="-34.336%" y2="-73.085%" id="c"><stop stop-color="#BE3F45" stop-opacity="0" offset="0%"/><stop stop-color="#BE3F45" offset="100%"/></linearGradient><linearGradient x1="49.999%" y1="38.525%" x2="49.999%" y2="88.331%" id="d"><stop stop-color="#FFB92D" offset="0%"/><stop stop-color="#F59500" offset="100%"/></linearGradient><linearGradient x1="49.998%" y1="41.018%" x2="49.998%" y2="86.682%" id="e"><stop stop-color="#FFB92D" offset="0%"/><stop stop-color="#F59500" offset="100%"/></linearGradient><linearGradient x1="34.825%" y1="59.105%" x2="-85.952%" y2="-53.883%" id="f"><stop stop-color="#BE3F45" stop-opacity="0" offset="0%"/><stop stop-color="#BE3F45" offset="100%"/></linearGradient><linearGradient x1="38.496%" y1="50.002%" x2="88.312%" y2="50.002%" id="g"><stop stop-color="#FFF465" offset="0%"/><stop stop-color="#FFE600" offset="100%"/></linearGradient><linearGradient x1="38.523%" y1="50.004%" x2="88.311%" y2="50.004%" id="h"><stop stop-color="#FFF465" offset="0%"/><stop stop-color="#FFE600" offset="100%"/></linearGradient><linearGradient x1="55.499%" y1="50.827%" x2="44.021%" y2="49.255%" id="i"><stop stop-color="#C3C3C3" offset="0%"/><stop stop-color="#F2F2F2" offset="100%"/></linearGradient><linearGradient x1="53.718%" y1="50.704%" x2="46.72%" y2="49.551%" id="j"><stop stop-color="#C3C3C3" offset="0%"/><stop stop-color="#F2F2F2" offset="100%"/></linearGradient><linearGradient x1="53.384%" y1="50.748%" x2="47.077%" y2="49.657%" id="k"><stop stop-color="#C3C3C3" offset="0%"/><stop stop-color="#F2F2F2" offset="100%"/></linearGradient></defs><g fill-rule="nonzero" fill="none"><path d="M6.01 14.556H1.127l.86 2.423c.462 1.305.699 2.68.699 4.064v.254a2.441 2.441 0 1 0 4.883 0v-.254c0-1.385-.237-2.759-.7-4.064l-.859-2.423z" fill="url(#a)" transform="translate(0 4)"/><path d="M3.56 17.656c.353.997.534 2.047.534 3.104v.215a.986.986 0 0 0 1.972 0v-.215c0-1.058-.18-2.107-.534-3.104l-.312-.66a.772.772 0 0 0-.698-.442h-.264c-.567 0-.94.59-.698 1.102z" fill="url(#b)" transform="translate(0 4)"/><path d="M6.01 14.556H1.127l.064.18 6.378 6.378v-.071c0-1.385-.237-2.759-.7-4.063l-.859-2.424z" fill="url(#c)" transform="translate(0 4)"/><path d="M0 12.838V8.083c0-1.171.95-2.121 2.122-2.121h6.687c1.172 0 2.122.95 2.122 2.121v4.755c0 1.172-.95 2.122-2.122 2.122H2.122A2.122 2.122 0 0 1 0 12.838z" fill="url(#d)" transform="translate(0 4)"/><path d="M20.361 20.187a117.328 117.328 0 0 0-12.723-5.322 1.464 1.464 0 0 1-.98-1.381V7.438c0-.622.393-1.176.98-1.381 4.348-1.524 8.587-3.3 12.723-5.322a1.465 1.465 0 0 1 2.1 1.137 70.645 70.645 0 0 1 0 17.178 1.465 1.465 0 0 1-2.1 1.137z" fill="url(#e)" transform="translate(0 4)"/><path d="M22.127 19.818L8.175 5.866c-.18.064-.358.128-.537.19-.587.206-.98.76-.98 1.382v6.046c0 .622.393 1.175.98 1.381 4.348 1.524 8.587 3.3 12.723 5.322.635.31 1.352.118 1.765-.369z" fill="url(#f)" transform="translate(0 4)"/><path d="M22.455 1.079a1.224 1.224 0 0 0-1.748-.945 1.18 1.18 0 0 0-.633 1.285l.014.088a73.645 73.645 0 0 1-.014 17.996 1.18 1.18 0 0 0 .633 1.284 1.224 1.224 0 0 0 1.748-.944c.8-6.249.8-12.515 0-18.765z" fill="url(#g)" transform="translate(0 4)"/><path d="M7.013 15.7c-.752 0-1.363-.61-1.363-1.363V6.585a1.363 1.363 0 1 1 2.726 0v7.752c0 .753-.61 1.363-1.363 1.363z" fill="url(#h)" transform="translate(0 4)"/><path d="M24.562 13.93a1.029 1.029 0 0 1-1.015-1.204c.085-.49.143-1.01.172-1.545.058-1.045-.001-2.067-.167-2.88a1.029 1.029 0 1 1 2.017-.41c.202.993.273 2.17.205 3.403-.034.614-.101 1.214-.2 1.782a1.03 1.03 0 0 1-1.012.854z" fill="url(#i)" transform="translate(0 4)"/><path d="M26.963 15.842a1.029 1.029 0 0 1-.961-1.396c.446-1.167.723-2.55.803-4.002.08-1.45-.043-2.846-.357-4.04a1.029 1.029 0 1 1 1.99-.523c.368 1.398.514 3.016.422 4.677-.092 1.66-.415 3.258-.935 4.622a1.03 1.03 0 0 1-.962.662z" fill="url(#j)" transform="translate(0 4)"/><path d="M29.292 17.688a1.029 1.029 0 0 1-.9-1.527c.885-1.598 1.413-3.538 1.527-5.611.115-2.07-.196-4.039-.898-5.69a1.029 1.029 0 1 1 1.893-.806c.825 1.94 1.192 4.226 1.06 6.61-.132 2.38-.748 4.626-1.781 6.493-.188.34-.54.53-.901.53z" fill="url(#k)" transform="translate(0 4)"/></g></svg>
